images/financial-statement.svg

<svg width="364" height="364" viewBox="0 0 364 364" fill="none" xmlns="http://www.w3.org/2000/svg">
<path d="M319.993 187.37V32.9164C319.993 27.027 315.218 22.2523 309.329 22.2523H277.337V10.6641C277.337 4.77466 272.562 0 266.673 0H74.6484C71.8196 0 69.1074 1.12328 67.1082 3.12386L3.12528 67.1061C1.16665 69.0647 0 71.7834 0 74.6484V353.336C0 359.225 4.77466 364 10.6641 364H267.277C322.232 364 364 319.938 364 268.023C364 234.239 346.451 204.478 319.993 187.37ZM298.665 43.5805V177.063C291.863 174.765 284.72 173.214 277.337 172.5V43.5805H298.665ZM64.0555 36.3381V63.9844H36.4092L64.0555 36.3381ZM21.3281 342.672V85.3125H74.7195C80.6089 85.3125 85.3836 80.5378 85.3836 74.6484V21.3281H256.009V172.798C228.111 176.297 203.903 191.817 188.743 213.992H53.3914C47.502 213.992 42.7273 218.767 42.7273 224.656C42.7273 230.546 47.502 235.32 53.3914 235.32H177.788C175.32 242.108 173.602 249.251 172.724 256.648H53.3914C47.502 256.648 42.7273 261.423 42.7273 267.312C42.7273 273.202 47.502 277.977 53.3914 277.977H172.562C173.327 285.365 174.936 292.506 177.286 299.305H53.3914C47.502 299.305 42.7273 304.079 42.7273 309.969C42.7273 315.858 47.502 320.633 53.3914 320.633H187.792C193.28 328.974 200.031 336.411 207.772 342.672H21.3281ZM268.023 342.672C226.862 342.672 193.375 309.185 193.375 268.023C193.375 226.862 226.862 193.375 268.023 193.375C309.185 193.375 342.672 226.862 342.672 268.023C342.672 309.185 309.185 342.672 268.023 342.672Z" fill="#B00020"/>
<path d="M285.639 299H299.751V230.84H286.119V275.864L256.359 230.84H242.247V299H255.879V253.976L285.639 299Z" fill="#B00020"/>
<path d="M75.3949 182.036H203.293C209.182 182.036 213.957 177.261 213.957 171.371C213.957 114.631 213.955 185.889 213.957 128.644C213.957 122.755 209.182 117.98 203.293 117.98H171.3V86.0234C171.3 80.134 166.526 75.3594 160.636 75.3594H118.051C112.162 75.3594 107.387 80.134 107.387 86.0234V107.378C105.324 107.376 73.3524 107.349 75.3949 107.352C69.5119 107.352 64.7308 112.123 64.7308 118.016V171.371C64.7308 177.261 69.5055 182.036 75.3949 182.036ZM192.629 139.308V160.707H171.3V139.308H192.629ZM128.715 96.6875H149.972V160.707H128.715V96.6875ZM107.387 128.706V160.707H86.059V128.688L107.387 128.706Z" fill="#B00020"/>
</svg>

<svg width="364" height="364" fill="none" xmlns="http://www.w3.org/2000/svg"><path d="M319.993 187.37V32.916c0-5.889-4.775-10.664-10.664-10.664h-31.992V10.664c0-5.89-4.775-10.664-10.664-10.664H74.648a10.659 10.659 0 00-7.54 3.124L3.125 67.106A10.707 10.707 0 000 74.648v278.688C0 359.225 4.775 364 10.664 364h256.613C322.232 364 364 319.938 364 268.023c0-33.784-17.549-63.545-44.007-80.653zM298.665 43.58v133.483a95.23 95.23 0 00-21.328-4.563V43.58h21.328zm-234.61-7.242v27.646H36.41l27.646-27.646zM21.328 342.672V85.312H74.72c5.89 0 10.665-4.774 10.665-10.664v-53.32H256.01v151.47c-27.898 3.499-52.106 19.019-67.266 41.194H53.391c-5.889 0-10.664 4.775-10.664 10.664 0 5.89 4.775 10.664 10.664 10.664h124.397a95.22 95.22 0 00-5.064 21.328H53.391c-5.889 0-10.664 4.775-10.664 10.664 0 5.89 4.775 10.665 10.664 10.665h119.171a95.28 95.28 0 004.724 21.328H53.391c-5.889 0-10.664 4.774-10.664 10.664 0 5.889 4.775 10.664 10.664 10.664h134.401a96.776 96.776 0 0019.98 22.039H21.328zm246.695 0c-41.161 0-74.648-33.487-74.648-74.649 0-41.161 33.487-74.648 74.648-74.648 41.162 0 74.649 33.487 74.649 74.648 0 41.162-33.487 74.649-74.649 74.649z" fill="#B00020"/><path d="M285.639 299h14.112v-68.16h-13.632v45.024l-29.76-45.024h-14.112V299h13.632v-45.024L285.639 299zM75.395 182.036h127.898c5.889 0 10.664-4.775 10.664-10.665 0-56.74-.002 14.518 0-42.727 0-5.889-4.775-10.664-10.664-10.664H171.3V86.023c0-5.889-4.774-10.664-10.664-10.664h-42.585c-5.889 0-10.664 4.775-10.664 10.664v21.355c-2.063-.002-34.035-.029-31.992-.026-5.883 0-10.664 4.771-10.664 10.664v53.355c0 5.89 4.775 10.665 10.664 10.665zm117.234-42.728v21.399H171.3v-21.399h21.329zm-63.914-42.62h21.257v64.019h-21.257v-64.02zm-21.328 32.018v32.001H86.059v-32.019l21.328.018z" fill="#B00020"/></svg>
